icon/hi/save.svg

<svg viewBox="0 0 20 20" fill="none" xmlns="http://www.w3.org/2000/svg" height="1em" width="1em">
  <path d="M7.70711 10.2929C7.31658 9.90237 6.68342 9.90237 6.29289 10.2929C5.90237 10.6834 5.90237 11.3166 6.29289 11.7071L9.29289 14.7071C9.68342 15.0976 10.3166 15.0976 10.7071 14.7071L13.7071 11.7071C14.0976 11.3166 14.0976 10.6834 13.7071 10.2929C13.3166 9.90237 12.6834 9.90237 12.2929 10.2929L11 11.5858L11 6H16C17.1046 6 18 6.89543 18 8V15C18 16.1046 17.1046 17 16 17H4C2.89543 17 2 16.1046 2 15V8C2 6.89543 2.89543 6 4 6H9L9 11.5858L7.70711 10.2929Z" fill="#374151"/>
  <path d="M9 4C9 3.44772 9.44772 3 10 3C10.5523 3 11 3.44772 11 4L11 6H9L9 4Z" fill="#374151"/>
</svg>

<svg width="20" height="20" fill="none" xmlns="http://www.w3.org/2000/svg"><path d="M7.707 10.293a1 1 0 1 0-1.414 1.414l3 3a1 1 0 0 0 1.414 0l3-3a1 1 0 0 0-1.414-1.414L11 11.586V6h5a2 2 0 0 1 2 2v7a2 2 0 0 1-2 2H4a2 2 0 0 1-2-2V8a2 2 0 0 1 2-2h5v5.586l-1.293-1.293ZM9 4a1 1 0 0 1 2 0v2H9V4Z" fill="#374151"/></svg>
